!!!!SEGMENT: pl-kk--kk-i-2--002_anonim--kyrie.krn
!!!cenid: 16xx:1591
!!!COM: Anonim
!!!COM-rismid: pe30004985
!!!CDT:
!!!CNT:
!!!OTL: Kyrie
!!!PDT:
!!!AGN: Sacred
!!!SMS-siglum: PL-Kk
!!!SMS-shelfmark: Kk.I.2
!!!SMS-shelfwork: 002 W
!!!NIFC-rismid: 300258018
!!!URL-scan: http://repozytorium.nifc.pl/skany/pl-kk-nut--i-2
!!!ONB-nifc: C: 0003; A: 0103; T: 0207; B: 0307
!!!key: F:lyd
**kern	**text	**kern	**text	**kern	**text	**kern	**text
*group1	*	*group1	*	*group1	*	*group1	*
*part4	*part4	*part3	*part3	*part2	*part2	*part1	*part1
*staff4	*staff4	*staff3	*staff3	*staff2	*staff2	*staff1	*staff1
*I"BASSVS	*	*I"TENOR	*	*I"ALTVS	*	*I"DISCANTVS	*
*I'[B]	*	*I'[T]	*	*I'[A]	*	*I'[S]	*
*Ibass	*	*Itenor	*	*Ialto	*	*Isoprn	*
*ICvox	*	*ICvox	*	*ICvox	*	*ICvox	*
*clefF4	*	*clefC4	*	*clefC4	*	*clefC3	*
*k[b-]	*	*k[b-]	*	*k[b-]	*	*k[b-]	*
*F:lyd	*	*F:lyd	*	*F:lyd	*	*F:lyd	*
*M2/1	*	*M2/1	*	*M2/1	*	*M2/1	*
*met(C|)	*	*met(C|)	*	*met(C|)	*	*met(C|)	*
=1-	=1-	=1-	=1-	=1-	=1-	=1-	=1-
*2\right	*	*	*	*2\right	*	*2\right	*
!LO:TX:t=P:problem=all\right&colon; global	!	!	!	!	!	!	!
!LO:TX:t=P:problem=kreska pseudotaktowa	!	!	!	!LO:TX:t=P:problem=all\right&colon; global	!	!LO:TX:t=P:problem=all\right&colon; global	!
1r	.	1F	Kÿ-	2c\	Kÿ-	2r	.
.	.	.	.	1A	-ri-	1f	Kÿ-
!	!	!LO:TX:t=P:problem=kreska pseudotaktowa	!	!	!	!	!
1F	Kÿ-	1D	-ri-	.	.	.	.
.	.	.	.	2.B-\	-e	1d\	-ri-
=2-	=2-	=2	=2	=2-	=2-	=2-	=2-
*lig	*	*lig	*	*	*	*	*
1D	-ri-	1F	-e	.	.	.	.
.	.	.	.	8A/L	.	.	.
.	.	.	.	8G/J	.	.	.
.	.	.	.	4A/	.	2.f\	-e
!	!	!	!	!LO:TX:t=P:problem=kreska pseudotaktowa	!	!	!
.	.	.	.	4B-\	.	.	.
1C	.	1G	.	1c	.	.	.
.	.	.	.	.	.	8e\L	.
.	.	.	.	.	.	8d\J	.
!	!	!	!	!	!	!LO:TX:t=P:problem=kreska pseudotaktowa	!
.	.	.	.	.	.	2e\	.
*Xlig	*	*Xlig	*	*	*	*	*
=3-	=3-	=3-	=3-	=3-	=3-	=3	=3
!LO:TX:t=P:problem=kreska pseudotaktowa	!	!	!	!	!	!	!
*	*	*lig	*	*	*	*	*
1F	-e	1A	.	1c	lei-	2.f\	.
.	.	.	.	.	.	4e\	.
2.BB-/	e-	1B-	.	2B-\	-ſon	4d\	.
.	.	.	.	.	.	4c/	.
!	!	!	!	!LO:TX:t=P:problem=kreska pseudotaktowa	!	!	!
.	.	.	.	2f\	Kÿ-	4d\	.
!	!	!	!	!	!	!LO:TX:t=P:problem=kreska pseudotaktowa	!
4C/	.	.	.	.	.	4e\	.
*	*	*Xlig	*	*	*	*	*
=4-	=4-	=4-	=4-	=4	=4	=4	=4
*	*	*lig	*	*	*	*	*
4D/	.	1A	.	2d\	-ri-	1f	.
4E\	.	.	.	.	.	.	.
1F	.	.	.	2.c\	-e	.	.
.	.	1G	.	.	.	1c	e-
.	.	.	.	4B-\	.	.	.
!LO:TX:t=P:problem=kreska pseudotaktowa	!	!	!	!	!	!	!
2E\	.	.	.	2G/	.	.	.
*	*	*Xlig	*	*	*	*	*
=5	=5	=5-	=5-	=5-	=5-	=5-	=5-
*	*	*	*	*lig	*	*	*
2.D/	.	1F	e-	1A	e-	0d	.
4C/	.	.	.	.	.	.	.
*	*	*lig	*	*col	*	*	*
1BB-	.	1D	-ley-	2.B-\	.	.	.
*	*	*	*	*Xlig	*	*	*
.	.	.	.	4A/	.	.	.
*	*	*	*	*Xcol	*	*	*
=6-	=6-	=6-	=6-	=6-	=6-	=6-	=6-
1C	-leÿ-	1E	.	1G	-lei-	1c	-lei-
*	*	*Xlig	*	*	*	*	*
!LO:TX:t=P:problem=kreska pseudotaktowa	!	!LO:TX:t=P:problem=kreska pseudotaktowa	!	!LO:TX:t=P:problem=kreska pseudotaktowa	!	!LO:TX:t=P:problem=kreska pseudotaktowa	!
00FF/	-ſon.	00F\;>	-ſon	00A	-ſon:	00c\	-ſon
!LO:PB:g=original	!	!	!	!LO:PB:g=original	!	!LO:PB:g=original	!
=7||	=7||	=7||	=7||	=7||	=7||	=7||	=7||
*	*	*lig	*	*	*	*	*
!	!	!	!	!	!	!LO:TX:t=P:problem=kreska pseudotaktowa	!
2r	.	1F	Chri-	2.c\	Chri-	0r	.
1F	Chri-	.	.	.	.	.	.
.	.	.	.	4B-\	.	.	.
.	.	1c	.	2A/	-ſte	.	.
!LO:TX:t=P:problem=kreska pseudotaktowa	!	!	!	!LO:TX:t=P:problem=kreska pseudotaktowa	!	!	!
2E\	.	.	.	2G/	e-	.	.
*	*	*Xlig	*	*	*	*	*
=8	=8	=8-	=8-	=8	=8	=8-	=8-
1F	-ſte	1c	-ſte	1A	-lei-	2.f\	Chri-
!	!	!	!	!	!	!LO:TX:t=P:problem=kreska pseudotaktowa	!
.	.	.	.	.	.	4e\	.
*	*	*custos:b-	*	*	*	*	*
!	!	!LO:LB:g=original	!	!	!	!	!
!	!	!	!	!LO:TX:t=P:problem=kreska pseudotaktowa	!	!	!
2.BB-/	e-	1B-	.	1F	-ſon	4d\	.
.	.	.	.	.	.	4c/	.
.	.	.	.	.	.	1d\	.
4C/	.	.	.	.	.	.	.
=9-	=9-	=9-	=9-	=9	=9	=9-	=9-
!	!	!LO:TX:t=P:problem=kreska pseudotaktowa	!	!	!	!	!
4D/	.	1A	.	2r	.	.	.
4E\	.	.	.	.	.	.	.
!LO:TX:t=P:problem=kreska pseudotaktowa	!	!	!	!	!	!	!
2F\	.	.	.	1f	Chri-	1c	-ſte
*lig	*	*lig	*	*	*	*	*
1G	.	1B-	.	.	.	.	.
!	!	!	!	!LO:TX:t=P:problem=kreska pseudotaktowa	!	!	!
.	.	.	.	2e\	-ſte	1B-/	e-
=10-	=10-	=10-	=10-	=10	=10	=10-	=10-
1F	.	1c	.	2.f\	.	.	.
!	!	!	!	!	!	!LO:TX:t=P:problem=kreska pseudotaktowa	!
.	.	.	.	.	.	2A/	-leÿ-
.	.	.	.	4e\	e-	.	.
*Xlig	*	*Xlig	*	*	*	*	*
*	*	*lig	*	*	*	*	*
1BB-	.	1d	.	4d\	.	2B-/	-ſon.
.	.	.	.	4c\	.	.	.
.	.	.	.	4B-\	.	1f\	Chri-
!	!	!	!	!LO:TX:t=P:problem=kreska pseudotaktowa	!	!	!
.	.	.	.	4A/	.	.	.
=11-	=11-	=11-	=11-	=11	=11	=11-	=11-
!LO:TX:t=P:problem=kreska pseudotaktowa	!	!	!	!	!	!	!
1C	.	1c	.	4G/	.	.	.
.	.	.	.	4F/	.	.	.
!	!	!	!	!	!	!LO:TX:t=P:problem=kreska pseudotaktowa	!
.	.	.	.	2G/	.	2e\	.
*	*	*Xlig	*	*	*	*	*
2.D/	-leÿ-	1A	.	0.F	-lei-	2.f\	-ſte
4C/	.	.	.	.	.	4e\	e-
=12-	=12-	=12-	=12-	=12-	=12-	=12-	=12-
*	*	*lig	*	*	*	*	*
1BB-	.	1B-	.	.	.	4d\	.
.	.	.	.	.	.	4c/	.
!	!	!	!	!	!	!LO:TX:t=P:problem=kreska pseudotaktowa	!
.	.	.	.	.	.	2d\	.
2FF/	-ſon.	1A	.	.	.	1c	.
1F\	Chri-	.	.	.	.	.	.
*	*	*Xlig	*	*	*	*	*
=13-	=13-	=13-	=13-	=13-	=13-	=13-	=13-
*	*	*lig	*	*	*	*	*
.	.	1G	-e-	2C/	-ſon	2c/	-leÿ-
!LO:TX:t=P:problem=kreska pseudotaktowa	!	!	!	!	!	!LO:TX:t=P:problem=kreska pseudotaktowa	!
2E\	-ſte	.	.	4c\	.	2c/	-ſon.
!	!	!	!	!LO:TX:t=P:problem=kreska pseudotaktowa	!	!	!
.	.	.	.	4B-\	.	.	.
4F\	.	1F	.	4A/	Chri-	2c/	Chri-
4E\	.	.	.	4G/	.	.	.
4D/	e-	.	.	2A/	.	2.d\	.
4C/	.	.	.	.	.	.	.
*	*	*Xlig	*	*	*	*	*
=14-	=14-	=14-	=14-	=14-	=14-	=14-	=14-
*	*	*lig	*	*	*	*	*
2BB-/	.	1D	-lei-	2B-\	-ſte	.	.
.	.	.	.	.	.	8c/L	-[ste]
.	.	.	.	.	.	8B-/J	.
2D/	.	.	.	2F/	e-	4A/	e-
.	.	.	.	.	.	4B-/	.
!LO:TX:t=P:problem=kreska pseudotaktowa	!	!	!	!	!	!	!
1C	-lei-	1E	.	1G	-lei-	1c	-ley-
*	*	*Xlig	*	*	*	*	*
=15	=15	=15-	=15-	=15-	=15-	=15-	=15-
!LO:TX:t=P:problem=kreska pseudotaktowa	!	!LO:TX:t=P:problem=kreska pseudotaktowa	!	!LO:TX:t=P:problem=kreska pseudotaktowa	!	!LO:TX:t=P:problem=kresk pseudotaktowa	!
00FF/	-ſon.	00F\	-ſon	00A\	-ſon.	00c\	-ſon.
!LO:LB:g=original	!	!	!	!LO:LB:g=original	!	!LO:LB:g=original	!
=16||	=16||	=16||	=16||	=16||	=16||	=16||	=16||
*	*	*lig	*	*	*	*	*
1r	.	1F	Kÿ-	2r	.	1.f	Kÿ-
!	!	!	!	!LO:TX:t=P:problem=kreska pseudotaktowa	!	!	!
.	.	.	.	2F/	Kÿ-	.	.
*lig	*	*	*	*	*	*	*
1C	Kÿ-	1c	.	1G	-ri-	.	.
!	!	!	!	!	!	!LO:TX:t=P:problem=kreska pseudotaktowa	!
.	.	.	.	.	.	2e\	-ri-
*	*	*Xlig	*	*	*	*	*
=17-	=17-	=17-	=17-	=17-	=17-	=17	=17
1.F	.	1c	-ri-	4A/	-e	4f\	-e
.	.	.	.	4B-\	.	4g\	.
.	.	.	.	1c	.	1a	.
*	*	*lig	*	*	*	*	*
.	.	1d	-e	.	.	.	.
*Xlig	*	*	*	*	*	*	*
!LO:TX:t=P:problem=kreska pseudotaktowa	!	!	!	!LO:TX:t=P:problem=kreska pseudotaktowa	!	!	!
!	!	!	!	!LO:N:acc=#	!	!	!
2G\	-ri-	.	.	2Bn\	.	4g\	.
!	!	!	!	!	!	!LO:TX:t=P:problem=kreska pseudotaktowa	!
.	.	.	.	.	.	4f\	.
=18	=18	=18-	=18-	=18	=18	=18	=18
!	!	!LO:TX:t=P:problem=kreska pseudotaktowa	!	!	!	!	!
1A	-e	1c	.	1c	.	2e\	.
.	.	.	.	.	.	2a\	e-
*	*	*Xlig	*	*	*	*	*
*	*	*lig	*	*	*	*	*
1D	e-	1f	e	1.d	-leÿ-	0.a	-leÿ-
=19-	=19-	=19-	=19-	=19-	=19-	=19-	=19-
1A	.	1e	.	.	.	.	.
!	!	!	!	!LO:TX:t=P:problem=kreska pseudotaktowa	!	!	!
.	.	.	.	2c\	-ſon	.	.
*	*	*custos:d	*	*	*	*	*
!	!	!LO:PB:g=original	!	!	!	!	!
*lig	*	*Xlig	*	*	*	*	*
*	*	*lig	*	*	*	*	*
1D	.	1d	.	1f	Ky-	.	.
=20-	=20-	=20-	=20-	=20-	=20-	=20-	=20-
*col	*	*	*	*	*	*	*
!	!	!LO:TX:t=P:problem=kreska pseudotaktowa	!	!	!	!LO:TX:t=P:problem=kreska pseudotaktowa	!
2.E\	.	1c	.	1e	-ri-	1g	-ſon.
*Xlig	*	*Xlig	*	*	*	*	*
!LO:TX:t=P:problem=kreska pseudotaktowa	!	!	!	!	!	!	!
4F\	.	.	.	.	.	.	.
*Xcol	*	*lig	*	*	*	*	*
1G	.	1B-	.	2d\	.	2r	.
.	.	.	.	2.d\	-e	1g\	Kÿ-
=21-	=21-	=21-	=21-	=21-	=21-	=21-	=21-
1A	.	1c	.	.	.	.	.
.	.	.	.	4c\	.	.	.
!	!	!	!	!	!	!LO:TX:a:t=P:problem=# below	!
!	!	!	!	!	!	!LO:TX:t=P:problem=kreska pseudotaktowa	!
.	.	.	.	1c	.	2f#X\	-ri-
*	*	*Xlig	*	*	*	*	*
!LO:TX:t=P:problem=kreska pseudotaktowa	!	!	!	!	!	!	!
*	*	*lig	*	*	*	*	*
1G	-lei-	1d	.	.	.	2.g\	-e
!	!	!	!	!LO:TX:t=P:problem=kreska pseudotaktowa	!	!	!
!	!	!	!	!LO:N:acc=#	!	!	!
.	.	.	.	2Bn\	-ley-	.	.
.	.	.	.	.	.	4fny\	e-
=22	=22	=22-	=22-	=22	=22	=22-	=22-
2C/	-ſon	1c	.	4c\	.	2e\	-lei-
.	.	.	.	4B-\	.	.	.
!	!	!	!	!	!	!LO:TX:t=P:problem=kreska pseudotaktowa	!
2.F\	Kÿ-	.	.	4A/	-ſon	2f\	-ſon.
.	.	.	.	4G/	.	.	.
*	*	*Xlig	*	*	*	*	*
.	.	1A	.	2F/	.	2c/	Kÿ-
4E\	.	.	.	.	.	.	.
4D/	.	.	.	4f\	.	2d\	-ri-
4C/	.	.	.	4e\	.	.	.
=23-	=23-	=23-	=23-	=23-	=23-	=23-	=23-
*	*	*lig	*	*	*	*	*
2BB-/	.	1B-	e-	4d\	Ky-	2f\	-e
.	.	.	.	4c\	.	.	.
!LO:TX:t=P:problem=kreska pseudotaktowa	!	!	!	!LO:TX:t=P:problem=kreska pseudotaktowa	!	!	!
2GG/	-ri-	.	.	2d\	-ri-	2.g\	e-
2.AA/	-e	1A	.	1c	-e	.	.
.	.	.	.	.	.	4f\	.
.	.	.	.	.	.	1f\	.
4BB-/	.	.	.	.	.	.	.
*	*	*Xlig	*	*	*	*	*
=24-	=24-	=24-	=24-	=24-	=24-	=24-	=24-
*	*	*lig	*	*	*	*	*
1C	.	1G	.	2.c\	e-	.	.
!	!	!	!	!	!	!LO:TX:t=P:problem=kreska pseudotaktowa	!
.	.	.	.	.	.	2e\	-lei-
.	.	.	.	4B-\	.	.	.
2.D/	e-	1F	.	1A	.	2f\	-ſon
.	.	.	.	.	.	2.f\	.
4C/	.	.	.	.	.	.	.
*	*	*Xlig	*	*	*	*	*
=25-	=25-	=25-	=25-	=25-	=25-	=25-	=25-
*lig	*	*	*	*	*	*	*
1BB-	-ley-	1D	.	2.B-\	.	.	.
.	.	.	.	.	.	4e\	e-
.	.	.	.	.	.	2d\	.
.	.	.	.	4A/	.	.	.
1C	.	1E	-lei-	1G	-lei-	1c	-lei-
*Xlig	*	*	*	*	*	*	*
=26-	=26-	=26-	=26-	=26-	=26-	=26-	=26-
!LO:TX:t=P:problem=kreska pseudotaktowa	!	!LO:TX:t=P:problem=kreska pseudotaktowa	!	!	!	!LO:TX:t=P:problem=kreska pseudotaktowa	!
00FF;>/	-ſon	00F\	-ſon.	00A\	-ſon	00c\	-ſon:
!	!	!	!	!LO:LB:g=original	!	!LO:LB:g=original	!
=27||	=27||	=27||	=27||	=27||-	=27||-	=27||	=27||
!LO:TX:t=P:problem=kreska pseudotaktowa	!	!	!	!	!	!	!
*	*	*lig	*	*	*	*	*
!	!	!	!	!LO:TX:t=P:problem=kreska pseudotaktowa	!	!	!
1r	.	1F	Kÿ-	1r	.	1.f	Kÿ-
1.F	Kÿ-	1c	.	2r	.	.	.
!	!	!	!	!	!	!LO:TX:t=P:problem=kreska pseudotaktowa	!
.	.	.	.	1f\	Kÿ-	2f\	-ri-
*	*	*Xlig	*	*	*	*	*
=28-	=28-	=28-	=28-	=28-	=28-	=28	=28
.	.	1c	-ri-	.	.	2a\	-e
!LO:TX:t=P:problem=kreska pseudotaktowa	!	!	!	!LO:TX:t=P:problem=kreska pseudotaktowa	!	!	!
2F\	-ri-	.	.	2f\	-ri-	2.a\	e-
*lig	*	*lig	*	*	*	*	*
1B-	-e	1d	-e	2d\	-e	.	.
.	.	.	.	.	.	8g\L	.
.	.	.	.	.	.	8f\J	.
!	!	!	!	!LO:TX:t=P:problem=kreska pseudotaktowa	!	!	!
.	.	.	.	2B-\	.	4e\	.
!	!	!	!	!	!	!LO:TX:t=P:problem=kreska pseudotaktowa	!
.	.	.	.	.	.	4f\	.
=29-	=29-	=29-	=29-	=29	=29	=29	=29
*col	*	*	*	*	*	*	*
*	*	*	*	*	*	*lig	*
2.A\	.	1c	.	1c	.	1f	.
*Xlig	*	*Xlig	*	*	*	*	*
8G\L	.	.	.	.	.	.	.
!LO:TX:t=P:problem=kreska pseudotaktowa	!	!	!	!	!	!	!
8F\J	.	.	.	.	.	.	.
*	*	*custos:f	*	*	*	*	*
!	!	!LO:LB:g=original	!	!	!	!	!
*Xcol	*	*	*	*	*	*	*
*lig	*	*lig	*	*	*	*	*
1D	e-	1f	.	2d\	e-	1a	.
.	.	.	.	2.d\	-lei-	.	.
*	*	*	*	*	*	*Xlig	*
=30-	=30-	=30-	=30-	=30-	=30-	=30-	=30-
*col	*	*	*	*	*	*	*
2.E\	.	1e	.	.	.	0g	-lei-
.	.	.	.	4c\	.	.	.
.	.	.	.	1c	.	.	.
*Xlig	*	*Xlig	*	*	*	*	*
!LO:TX:t=P:problem=kreska pseudotaktowa	!	!	!	!	!	!	!
4F\	.	.	.	.	.	.	.
*Xcol	*	*lig	*	*	*	*	*
2G\	.	1d	.	.	.	.	.
!	!	!	!	!LO:TX:t=P:problem=kreska pseudotaktowa	!	!	!
!	!	!	!	!LO:N:acc=#	!	!	!
!	!	!	!	!LO:TX:a:t=P:problem=# above	!	!	!
2G\	-ley-	.	.	2Bn\	.	.	.
=31-	=31-	=31-	=31-	=31-	=31-	=31-	=31-
2C/	-ſon	1c	.	1c	-ſon	2e\	-ſon.
!LO:TX:t=P:problem=kreska pseudotaktowa	!	!	!	!	!	!	!
2F\	Kÿ-	.	.	.	.	2f\	Kÿ-
*	*	*Xlig	*	*	*	*	*
*	*	*lig	*	*	*	*	*
1G	-ri-	1B-	.	2r	.	2d\	-ri-
*	*	*	*	*	*ij	*	*
!	!	!	!	!LO:TX:t=P:problem=kreska pseudotaktowa	!	!LO:TX:t=P:problem=kreska pseudotaktowa	!
.	.	.	.	2G/	e-	2e\	-e
=32-	=32-	=32-	=32-	=32	=32	=32	=32
2.F\	-e	1c	.	1.A	-lei-	1.f	e-
!LO:TX:t=P:problem=kreska pseudotaktowa	!	!	!	!	!	!	!
4E\	.	.	.	.	.	.	.
*	*	*Xlig	*	*	*	*	*
*	*	*lig	*	*	*	*	*
2D/	.	1d	.	.	.	.	.
2BB-/	e-	.	.	2B-\	.	1f\	-ley-
=33-	=33-	=33-	=33-	=33-	=33-	=33-	=33-
!	!	!LO:TX:t=P:problem=kreska pseudotaktowa	!	!	!	!	!
1C	-leÿ-	1c	.	1G	.	.	.
!	!	!	!	!	!	!LO:TX:t=P:problem=kreska pseudotaktowa	!
.	.	.	.	.	.	2e\	.
*	*	*Xlig	*	*	*	*	*
!LO:TX:t=P:problem=kreska pseudotaktowa	!	!	!	!LO:TX:t=P:problem=kreska pseudotaktowa	!	!	!
1FF	-ſon.	1A	.	1F	-son	2f\	-ſon
*	*	*	*	*	*Xij	*	*
.	.	.	.	.	.	2f\	Kÿ-
=34	=34	=34-	=34-	=34	=34	=34-	=34-
!	!	!LO:TX:t=P:problem=kreska pseudotaktowa	!	!	!	!	!
2r	.	0c	.	2r	.	2e\	-ri-
2F\	Ky-	.	.	2f\	Ky-	2.a\	-e
1A	-ri-	.	.	2e\	-ri-	.	.
.	.	.	.	.	.	8g\L	e-
.	.	.	.	.	.	8f\J	.
!	!	!	!	!LO:TX:t=P:problem=kreska pseudotaktowa	!	!	!
.	.	.	.	2c\	-e	4e\	.
!	!	!	!	!	!	!LO:TX:t=P:problem=kreska pseudotaktowa	!
.	.	.	.	.	.	4f\	.
=35-	=35-	=35	=35	=35	=35	=35	=35
!LO:TX:t=P:problem=kreska pseudotaktowa	!	!	!	!	!	!	!
*	*	*lig	*	*	*	*	*
1G	-e	1B-	.	2d\	e-	1g	.
!	!	!	!	!LO:TX:t=P:problem=kreska pseudotaktowa	!	!	!
.	.	.	.	2e\	.	.	.
*custos:F	*	*	*	*custos:f	*	*	*
!LO:LB:g=original	!	!	!	!LO:LB:g=original	!	!	!
1.F	e-	1c	.	2f\	.	1.a	.
.	.	.	.	1c\	.	.	.
*	*	*Xlig	*	*	*	*	*
=36-	=36-	=36-	=36-	=36-	=36-	=36-	=36-
*	*	*lig	*	*	*	*	*
.	.	1d	.	.	.	.	.
!	!	!	!	!LO:N:acc=#	!	!	!
!LO:TX:t=P:problem=kreska pseudotaktowa	!	!	!	!LO:TX:t=P:problem=kreska pseudotaktowa	!	!	!
2G\	-lei-	.	.	2Bn\	-lei-	4g\	.
!	!	!	!	!	!	!LO:TX:t=P:problem=kreska pseudotaktowa	!
.	.	.	.	.	.	4f\	.
*	*	*	*	*	*	*custos:e	*
!	!	!	!	!	!	!LO:LB:g=original	!
2C/	-ſon	1c	.	1c	-ſon	4e\	.
.	.	.	.	.	.	4f\	.
2C/	Kÿ-	.	.	.	.	4g\	.
!	!	!	!	!	!	!LO:TX:t=P:problem=kreska pseudotaktowa	!
.	.	.	.	.	.	4e\	.
*	*	*Xlig	*	*	*	*	*
=37-	=37-	=37-	=37-	=37-	=37-	=37	=37
*	*	*lig	*	*	*	*	*
1D	-ri-	1A	.	2r	.	2f\	-e-
!	!	!	!	!LO:TX:t=P:problem=kreska pseudotaktowa	!	!	!
.	.	.	.	2f\	Ky-	2d\	-ley-
2BB-/	-e	1B-	.	1d	-ri-	2f\	-ſon
!LO:TX:t=P:problem=kreska pseudotaktowa	!	!	!	!	!	!	!
2GG/	.	.	.	.	.	2.g\	Kÿ-
*	*	*Xlig	*	*	*	*	*
=38-	=38-	=38-	=38-	=38-	=38-	=38-	=38-
*	*	*lig	*	*	*	*	*
2.AA/	e-	1A	.	1c	-e	.	.
.	.	.	.	.	.	4f\	.
.	.	.	.	.	.	1f	.
4BB-/	.	.	.	.	.	.	.
!LO:TX:t=P:problem=kreska pseudotaktowa	!	!	!	!	!	!	!
1C	.	1G	.	2.c\	e-	.	.
!	!	!	!	!	!	!LO:TX:t=P:problem=kreska pseudotaktowa	!
.	.	.	.	.	.	2e\	-ri-
!	!	!	!	!LO:TX:t=P:problem=kreska pseudotaktowa	!	!	!
!	!	!	!	!LO:SIC:v:l:s:t=-ley-	!	!	!
.	.	.	.	4B-y\	-eley-	.	.
*	*	*Xlig	*	*	*	*	*
=39	=39	=39-	=39-	=39	=39	=39	=39
0D	.	1F	.	2.A/	-ſon	2f\	-e
.	.	.	.	.	.	2.d\	e-
.	.	.	.	4G/	e-	.	.
*	*	*	*	*lig	*	*	*
.	.	1D	e-	1F	-lei-	.	.
.	.	.	.	.	.	8c/L	.
.	.	.	.	.	.	8B-/J	.
.	.	.	.	.	.	4A/	.
.	.	.	.	.	.	4B-/	.
=40-	=40-	=40-	=40-	=40-	=40-	=40-	=40-
1C	-leÿ-	1E	-lei-	1G	.	1c	-ley-
*	*	*	*	*Xlig	*	*	*
00FF/	-ſon:	00F\	-ſon:	00A\	-ſon:	00c\	-ſon:
==	==	==	==	==	==	==	==
*-	*-	*-	*-	*-	*-	*-	*-
!!!system-decoration: [(g1)]
!!!RDF**kern: > = above
!!!RDF**kern: < = below
!!!AIN: 1 alto 1 bass 1 soprn 1 tenor
!!!ENC: Andrzej Gręziak
!!!END: 2022-01-03
!!!EED: Jędrzej Mróz
!!!EST: 2022-01-05
